X:326
T: Roving Pedlar (The)
N: O'Farrell's Pocket Companion v.4 (Sky ed. p.143)
N: "Irish"
M: 3/4
R: waltz
L: 1/8
Q: 200
K: D
de| f2d2 ed| B4 dB| A4A2| B2d2d2| d4d2|
d2e2f2| g3-gag| f2e2d2| f2a2f2| e4d2| d2e2f2|
g3-gag| f2e2d2| f2a2f2| e4 de|
f2d2 ed| B4 dB| A4A2| B2d2d2| d4||
